X: 21557
T: Kilfenora Lullaby, The
R: waltz
M: 3/4
K: Dmajor
A,|F2 ^E F2 G|E2 ^D E2 F|D A,2- A,3-|A,3 D2 C|
B,2 ^A, B,2 D|G2 B, D2 G|F3- F3-|F3 F2 F|
E2 E F2 E|A,3- A,2 F|F2 ^E F2 G|F3- F2 F|
E2 F ^G2 A|B2 ^G F2 E|A3- A3-|A3 z2 A,|
F2 ^E F2 G|E2 ^D E2 F|D A,2- A,3-|A,3 D2 C|
B,2 ^A, B,2 D|G2 B, D2 G|F3- F3-|F3 F2 F|
E2 E F2 E|A,3- A, F F|F2 ^E F2 G|F3- F F G|
^G2 F E2 D|C3 B,3|A,3- A,3-|A,3- A,3|
A2 ^G A2 ^A|B2 A G2 F|F E2- E3-|E3 E2D|
C2 B, C2 E|A3 G3|F3- F3-|F3- F3|
B2 ^A B2 =c|B2 A G2 F|F E2- E3-|E3 z B ^B|
c2 B A2 G|F3 E3|D3- D3-|D3- D2||

